build/service/DotsMenuSolid.svg

<svg xmlns="http://www.w3.org/2000/svg" fill="none" viewBox="0 0 24 24" focusable="false"><path d="M0 0H24V24H0z"/><path fill="#74767B" fill-rule="evenodd" d="M4 5.3C4 4.58203 4.58203 4 5.3 4L6.7 4C7.41797 4 8 4.58203 8 5.3L8 6.7C8 7.41797 7.41797 8 6.7 8L5.3 8C4.58203 8 4 7.41797 4 6.7L4 5.3ZM10 5.3C10 4.58203 10.582 4 11.3 4L12.7 4C13.418 4 14 4.58203 14 5.3L14 6.7C14 7.41797 13.418 8 12.7 8L11.3 8C10.582 8 10 7.41797 10 6.7L10 5.3ZM17.3 4L18.7 4C19.418 4 20 4.58203 20 5.3L20 6.7C20 7.41797 19.418 8 18.7 8L17.3 8C16.582 8 16 7.41797 16 6.7L16 5.3C16 4.58203 16.582 4 17.3 4ZM4 11.3C4 10.582 4.58203 10 5.3 10L6.7 10C7.41797 10 8 10.582 8 11.3L8 12.7C8 13.418 7.41797 14 6.7 14L5.3 14C4.58203 14 4 13.418 4 12.7L4 11.3ZM11.3 10L12.7 10C13.418 10 14 10.582 14 11.3L14 12.7C14 13.418 13.418 14 12.7 14L11.3 14C10.582 14 10 13.418 10 12.7L10 11.3C10 10.582 10.582 10 11.3 10ZM16 11.3C16 10.582 16.582 10 17.3 10L18.7 10C19.418 10 20 10.582 20 11.3L20 12.7C20 13.418 19.418 14 18.7 14L17.3 14C16.582 14 16 13.418 16 12.7L16 11.3ZM5.3 16L6.7 16C7.41797 16 8 16.582 8 17.3L8 18.7C8 19.418 7.41797 20 6.7 20L5.3 20C4.58203 20 4 19.418 4 18.7L4 17.3C4 16.582 4.58203 16 5.3 16ZM10 17.3C10 16.582 10.582 16 11.3 16L12.7 16C13.418 16 14 16.582 14 17.3L14 18.7C14 19.418 13.418 20 12.7 20L11.3 20C10.582 20 10 19.418 10 18.7L10 17.3ZM17.3 16L18.7 16C19.418 16 20 16.582 20 17.3L20 18.7C20 19.418 19.418 20 18.7 20L17.3 20C16.582 20 16 19.418 16 18.7L16 17.3C16 16.582 16.582 16 17.3 16Z"/></svg>

<svg xmlns="http://www.w3.org/2000/svg" fill="none" viewBox="0 0 24 24" focusable="false"><path fill="#74767B" fill-rule="evenodd" d="M4 5.29C4 4.58 4.58 4 5.29 4H6.7C7.41 4 8 4.58 8 5.29V6.7C8 7.41 7.41 8 6.7 8H5.29C4.58 8 4 7.41 4 6.7zm6 0c0-.71.58-1.29 1.29-1.29h1.41c.71 0 1.3.58 1.3 1.29V6.7c0 .71-.59 1.3-1.3 1.3h-1.41C10.58 8 10 7.41 10 6.7zM17.29 4h1.41c.71 0 1.3.58 1.3 1.29V6.7c0 .71-.59 1.3-1.3 1.3h-1.41C16.58 8 16 7.41 16 6.7V5.29c0-.71.58-1.29 1.29-1.29M4 11.3c0-.72.58-1.3 1.29-1.3H6.7c.71 0 1.3.58 1.3 1.3v1.4c0 .71-.59 1.3-1.3 1.3H5.29C4.58 14 4 13.41 4 12.7zm7.29-1.3h1.41c.71 0 1.3.58 1.3 1.3v1.4c0 .71-.59 1.3-1.3 1.3h-1.41c-.71 0-1.29-.59-1.29-1.3v-1.4c0-.72.58-1.3 1.29-1.3M16 11.3c0-.72.58-1.3 1.29-1.3h1.41c.71 0 1.3.58 1.3 1.3v1.4c0 .71-.59 1.3-1.3 1.3h-1.41c-.71 0-1.29-.59-1.29-1.3zM5.29 16H6.7c.71 0 1.3.58 1.3 1.29v1.41c0 .71-.59 1.3-1.3 1.3H5.29C4.58 20 4 19.41 4 18.7v-1.41c0-.71.58-1.29 1.29-1.29M10 17.29c0-.71.58-1.29 1.29-1.29h1.41c.71 0 1.3.58 1.3 1.29v1.41c0 .71-.59 1.3-1.3 1.3h-1.41c-.71 0-1.29-.59-1.29-1.3zM17.29 16h1.41c.71 0 1.3.58 1.3 1.29v1.41c0 .71-.59 1.3-1.3 1.3h-1.41c-.71 0-1.29-.59-1.29-1.3v-1.41c0-.71.58-1.29 1.29-1.29"/></svg>
